Simply-Blue-Circles/symbolic/actions/appointment-new-symbolic.svg

<svg xmlns="http://www.w3.org/2000/svg" version="1" viewBox="0 0 24 24"><g fill="gray"><path d="M11.37 2A9.4 9.4 0 0 0 2 11.38a9.4 9.4 0 0 0 11.25 9.19v-2.58a6.97 6.97 0 0 1-1.88.26 6.86 6.86 0 0 1-6.87-6.87 6.85 6.85 0 0 1 6.87-6.88A6.86 6.86 0 0 1 18 13.25h2.57A9.37 9.37 0 0 0 11.37 2zm3.71 5a.63.63 0 0 0-.09.02.63.63 0 0 0-.31.2l-3.32 3.31-2.07-2.06a.63.63 0 1 0-.86.86l2.5 2.5a.63.63 0 0 0 .86 0l3.75-3.75a.63.63 0 0 0-.46-1.07z" font-weight="400" overflow="visible" style="font-variant-ligatures:normal;font-variant-position:normal;font-variant-caps:normal;font-variant-numeric:normal;font-variant-alternates:normal;font-feature-settings:normal;text-indent:0;text-decoration-line:none;text-decoration-style:solid;text-decoration-color:#000;text-transform:none;text-orientation:mixed;shape-padding:0;isolation:auto;mix-blend-mode:normal" color="#000" white-space="normal"/><path d="M17 14.51v2.5h-2.5v2.5H17V22h2.5v-2.5H22V17h-2.5v-2.5z" overflow="visible" color="#bebebe"/></g></svg>

<?xml version="1.0" encoding="UTF-8" standalone="no"?>
<svg
   xmlns:dc="http://purl.org/dc/elements/1.1/"
   xmlns:cc="http://creativecommons.org/ns#"
   xmlns:rdf="http://www.w3.org/1999/02/22-rdf-syntax-ns#"
   xmlns:svg="http://www.w3.org/2000/svg"
   xmlns="http://www.w3.org/2000/svg"
   xmlns:sodipodi="http://sodipodi.sourceforge.net/DTD/sodipodi-0.dtd"
   xmlns:inkscape="http://www.inkscape.org/namespaces/inkscape"
   version="1"
   viewBox="0 0 24 24"
   id="svg8"
   sodipodi:docname="appointment-new-symbolic.svg"
   inkscape:version="0.92.4 (5da689c313, 2019-01-14)">
  <metadata
     id="metadata14">
    <rdf:RDF>
      <cc:Work
         rdf:about="">
        <dc:format>image/svg+xml</dc:format>
        <dc:type
           rdf:resource="http://purl.org/dc/dcmitype/StillImage" />
        <dc:title></dc:title>
      </cc:Work>
    </rdf:RDF>
  </metadata>
  <defs
     id="defs12" />
  <sodipodi:namedview
     pagecolor="#ffffff"
     bordercolor="#666666"
     borderopacity="1"
     objecttolerance="10"
     gridtolerance="10"
     guidetolerance="10"
     inkscape:pageopacity="0"
     inkscape:pageshadow="2"
     inkscape:window-width="1085"
     inkscape:window-height="480"
     id="namedview10"
     showgrid="false"
     inkscape:zoom="9.8333333"
     inkscape:cx="1.0677966"
     inkscape:cy="12"
     inkscape:window-x="0"
     inkscape:window-y="25"
     inkscape:window-maximized="0"
     inkscape:current-layer="svg8" />
  <g
     id="g6"
     style="fill:#808080">
    <path
       d="M 11.37,2 A 9.4,9.4 0 0 0 2,11.38 9.4,9.4 0 0 0 13.25,20.57 V 17.99 A 6.97,6.97 0 0 1 11.37,18.25 6.86,6.86 0 0 1 4.5,11.38 6.85,6.85 0 0 1 11.37,4.5 6.86,6.86 0 0 1 18,13.25 h 2.57 A 9.37,9.37 0 0 0 11.37,2 Z m 3.71,5 a 0.63,0.63 0 0 0 -0.09,0.02 0.63,0.63 0 0 0 -0.31,0.2 L 11.36,10.53 9.29,8.47 A 0.63,0.63 0 1 0 8.43,9.33 l 2.5,2.5 a 0.63,0.63 0 0 0 0.86,0 L 15.54,8.08 A 0.63,0.63 0 0 0 15.08,7.01 Z"
       font-weight="400"
       overflow="visible"
       style="color:#000000;font-weight:400;font-variant-ligatures:normal;font-variant-position:normal;font-variant-caps:normal;font-variant-numeric:normal;font-variant-alternates:normal;font-feature-settings:normal;text-indent:0;text-decoration:none;text-decoration-line:none;text-decoration-style:solid;text-decoration-color:#000000;text-transform:none;text-orientation:mixed;white-space:normal;shape-padding:0;overflow:visible;isolation:auto;mix-blend-mode:normal"
       id="path2"
       inkscape:connector-curvature="0" />
    <path
       d="m 17,14.51 v 2.5 h -2.5 v 2.5 H 17 V 22 h 2.5 V 19.5 H 22 V 17 h -2.5 v -2.5 z"
       overflow="visible"
       id="path4"
       inkscape:connector-curvature="0"
       style="color:#bebebe;overflow:visible" />
  </g>
</svg>
